X:1532
T:Dick Gossip's Reel
O:england
M:4/4
L:1/8
R:Reel
K:D
e2|"D" f2 af gfed|"D" f2 af gfed|"A"e2 ef gfed|"A"edef gfed|
"D" f2 af gfed|"D" f2 af gfed|"A"cdef gece|"D"dfec d2:|
|:ef|"G"gB B/B/B gBaB|"G"gB B/B/B gfed|"A"(3cBA eA fAeA|"A"(3cBA ef gfef
|
"G"gB B/B/B gBaB|"G"gB B/B/B gfed|"A"cdef gece|"D"dfec d2:||


